X:1
T:Jesus Is Precious
T:Jesus Is Precious
T:Isaac Hickman Meredith
T:Grant Colfax Tullar, 1899
T:Public Domain Courtesy of the Cyber Hymnal™
T:Public Domain Courtesy of the Cyber Hymnal™
C:Isaac Hickman Meredith
Z:Public Domain
Z:Courtesy of the Cyber Hymnal™
%%score ( 1 2 ) ( 3 4 )
L:1/8
Q:1/2=90
M:6/4
K:Db
V:1 treble 
V:2 treble 
V:3 bass 
V:4 bass 
V:1
 [FA]6 [DF]4 [DE]2 | D2 [DF]8 [FA]2 | [GB]6 [DG]4 [GB]2 | [FA]6- [FA]4 z2 | [Fd]6 [Ac]4 [GB]2 | %5
w: 1.~Peace like a|riv- er is|flood- ing my|soul, *|Since Christ, my|
w: 2.~Joy is a-|bound- ing— my|heart gai- ly|sings, *|Cleave I the|
w: 3.~Oh pre- cious|Je- sus, how|love- ly Thou|art! *|Come and a-|
 [FA]2 [DF]8 z2 | [DF]6 [DE]4 [DF]2 | [CE]6- [CE]4 z2 | [DA]6 [DF]4 [DE]2 | D2 [DF]8 [FA]2 | %10
w: Sav- ior,|mak- eth me|whole; *|Sweet peace a-|bid- ing my|
w: hea- vens—|mount up on|wings; *|Christ hath ex-|alt- ed— my|
w: bid- ing,|rule in my|heart; *|Break ev- ery|fet- ter— Thy|
 [GB]6 [DG]4 [GB]2 | [FA]6- [FA]4 z2 | [Fd]6 [Ge]4 [Fd]2 | [Gd]2 [GB]8 [GB]2 | [FA]6 [CE]4 [CF]2 | %15
w: por- tion shall|be— *|Je- sus, my|Sav- ior, is|pre- cious to|
w: soul He set|free— *|Je- sus, my|Sav- ior, is|pre- cious to|
w: face let me|see, *|Then Thou shalt|ev- er be|pre- cious to|
 D6- D4 z2 ||"^Refrain" [FA]8 [DF]2 [Fd]2 | [Gc]6- [Gc]4 z2 | [GB]8 [EG]2 [GB]2 | [FA]6- [FA]4 z2 | %20
w: me. *|||||
w: me. *|Pre- cious to|me, *|Pre- cious is|He; *|
w: me. *|||||
 [Fd]6 [Ge]4 [Fd]2 | [Gd]2 [GB]8 [GB]2 | [FA]6 [CE]4 [CF]2 | D6- [A,D]4 z2 |] %24
w: ||||
w: Je- sus shall|ev- er Be|pre- cious to|me. *|
w: ||||
V:2
 x12 | D2 x10 | x12 | x12 | x12 | x12 | x12 | x12 | x12 | D2 x10 | x12 | x12 | x12 | x12 | x12 | %15
 D6- D4 x2 || x12 | x12 | x12 | x12 | x12 | x12 | x12 | A,2 A,2 B,2 x6 |] %24
V:3
 [D,D]6 [D,A,]4 [D,G,]2 | [D,F,]2 [D,A,]8 [D,D]2 | [G,D]6 [G,B,]4 [G,D]2 | [D,D]6- [D,D]4 z2 | %4
w: ~ ~ ~|~ ~ ~|~ ~ ~|~ *|
 [D,A,]6 [D,D]4 [D,D]2 | [D,D]2 [D,A,]8 z2 | [B,,B,]6 [E,=G,]4 [E,G,]2 | [A,,A,]6- [A,,A,]4 z2 | %8
w: ~ ~ ~|~ ~|~ ~ ~|~ *|
 [D,F,]6 [D,A,]4 [D,G,]2 | [D,F,]2 [D,A,]8 [D,D]2 | [G,D]6 [G,B,]4 [G,D]2 | [D,D]6- [D,D]4 z2 | %12
w: ~ ~ ~|~ ~ ~|~ ~ ~|~ *|
 [D,A,]6 [D,A,]4 [D,A,]2 | [G,B,]2 [G,D]8 [G,D]2 | [A,D]6 [A,,G,]4 [A,,A,]2 | %15
w: ~ ~ ~|~ ~ ~|~ ~ ~|
 [D,F,]6- [D,F,]4 z2 || [D,D]2 [D,D]2 [D,D]2 [D,D]2 [D,A,]2 [D,A,]2 | %17
w: ~ *|Pre- cious to me, He is|
 [E,A,]2 [E,A,]2 [E,A,]2 [E,A,]4 z2 | [A,C]2 [A,C]2 [A,C]2 [A,C]2 [A,C]2 [A,C]2 | %19
w: pre- cious to me,|Je- sus, the Sav- ior, how|
 [D,D]2 [D,D]2 [D,D]2 [D,D]4 z2 | [D,A,]2 [D,A,]2 [D,A,]2 [D,A,]4 [D,A,]2 | %21
w: pre- cious is He;|Je- sus, my Sav- ior,|
 [G,B,]2 [G,D]2 [G,D]2 [G,D]4 [G,D]2 | [A,D]2 [A,D]2 [A,D]2 [A,,G,]4 [A,,A,]2 | %23
w: ev- er shall be So|pre- cious to me, to|
 (F,2 F,2 G,2 [D,F,]4) z2 |] %24
w: me. * * *|
V:4
 x12 | x12 | x12 | x12 | x12 | x12 | x12 | x12 | x12 | x12 | x12 | x12 | x12 | x12 | x12 | x12 || %16
 x12 | x12 | x12 | x12 | x12 | x12 | x12 | D,6- x6 |] %24

